X:816
T:Roaring Rivie
R:Strathspey
B:The Athole Collection
M:C|
L:1/8
K:D
c|A<d A>F D<d A>F|D<d A>F B<EE>B|A<d A>F D<A f>d|g>ba>g f<dd:|
f/g/|a<f d>f A<d f>d|A<d A>F B<E Ef/g/|a<f d>f A<d f>d|g>ba>g f<d df/g/|
a<f d>f A<d f>d|A<d A>F G<E E>F|D>d A>d D<d f>d|g>ba>g f<dd||

